X: 33392
T: Quick March
R: jig
M: 6/8
K: Gmajor
|:d/c/|B>cB A^GA|B2 G G2 B|d2 d Gdg|A>BA D2 d/c/|
B2 B A^GA|B2 G GEe|d>cB AdF|G2 G G2:|
|:B/c/|d>ed GB/c/d|e2 e e2 g|d2 d GB/c/d|cAA A2 B/c/|
d2 d d^cd|e2 e e/f/ge|d>cB AFD|G>AG G2:|

